images_elementary_svg/cmd/lc_controlcodes.svg

<?xml version="1.0" encoding="UTF-8" standalone="no"?>
<svg
   xmlns:dc="http://purl.org/dc/elements/1.1/"
   xmlns:cc="http://creativecommons.org/ns#"
   xmlns:rdf="http://www.w3.org/1999/02/22-rdf-syntax-ns#"
   xmlns:svg="http://www.w3.org/2000/svg"
   xmlns="http://www.w3.org/2000/svg"
   xmlns:xlink="http://www.w3.org/1999/xlink"
   xmlns:sodipodi="http://sodipodi.sourceforge.net/DTD/sodipodi-0.dtd"
   xmlns:inkscape="http://www.inkscape.org/namespaces/inkscape"
   height="24"
   width="24"
   version="1.1"
   id="svg15"
   sodipodi:docname="lc_controlcodes.svg"
   inkscape:version="0.92.3 (unknown)">
  <metadata
     id="metadata21">
    <rdf:RDF>
      <cc:Work
         rdf:about="">
        <dc:format>image/svg+xml</dc:format>
        <dc:type
           rdf:resource="http://purl.org/dc/dcmitype/StillImage" />
      </cc:Work>
    </rdf:RDF>
  </metadata>
  <defs
     id="defs19">
    <linearGradient
       id="linearGradient2867-449-88-871-390-598-476-591-434-148-57-177-641-289-620-227-114-444-680-744-4-1-5">
      <stop
         id="stop5430-5-0-9"
         style="stop-color:#737373;stop-opacity:1"
         offset="0" />
      <stop
         id="stop5432-2-0-0"
         style="stop-color:#636363;stop-opacity:1"
         offset="0.26238" />
      <stop
         id="stop5434-9-6-8"
         style="stop-color:#4b4b4b;stop-opacity:1"
         offset="0.704952" />
      <stop
         id="stop5436-2-7-0"
         style="stop-color:#3f3f3f;stop-opacity:1"
         offset="1" />
    </linearGradient>
    <radialGradient
       inkscape:collect="always"
       xlink:href="#linearGradient2867-449-88-871-390-598-476-591-434-148-57-177-641-289-620-227-114-444-680-744-4-1-5"
       id="radialGradient853"
       cx="15"
       cy="3.7500002"
       fx="15"
       fy="3.7500002"
       r="5.5"
       gradientTransform="matrix(-3.26989,0.1362455,-0.1818183,-4.3636363,64.730167,14.319955)"
       gradientUnits="userSpaceOnUse" />
    <radialGradient
       inkscape:collect="always"
       xlink:href="#linearGradient2867-449-88-871-390-598-476-591-434-148-57-177-641-289-620-227-114-444-680-744-4-1-5"
       id="radialGradient857"
       gradientUnits="userSpaceOnUse"
       gradientTransform="matrix(-3.26989,0.1362455,-0.1818183,-4.3636363,64.730167,14.319955)"
       cx="15"
       cy="3.7500002"
       fx="15"
       fy="3.7500002"
       r="5.5" />
  </defs>
  <sodipodi:namedview
     pagecolor="#ffffff"
     bordercolor="#666666"
     borderopacity="1"
     objecttolerance="10"
     gridtolerance="10"
     guidetolerance="10"
     inkscape:pageopacity="0"
     inkscape:pageshadow="2"
     inkscape:window-width="1366"
     inkscape:window-height="706"
     id="namedview17"
     showgrid="true"
     inkscape:snap-global="false"
     inkscape:zoom="9.8333333"
     inkscape:cx="-1.2636779"
     inkscape:cy="10.516375"
     inkscape:window-x="0"
     inkscape:window-y="0"
     inkscape:window-maximized="1"
     inkscape:current-layer="svg15">
    <inkscape:grid
       type="xygrid"
       id="grid851" />
  </sodipodi:namedview>
  <linearGradient
     id="a">
    <stop
       offset="0"
       id="stop2" />
    <stop
       offset="1"
       stop-opacity="0"
       id="stop4" />
  </linearGradient>
  <radialGradient
     id="b"
     cx="22.571428"
     cy="30.857143"
     gradientTransform="matrix(.70612396 0 0 .13549598 -3.458247 16.709114)"
     gradientUnits="userSpaceOnUse"
     r="15.571428"
     xlink:href="#a" />
  <linearGradient
     id="c"
     gradientUnits="userSpaceOnUse"
     x1="5"
     x2="22"
     xlink:href="#linearGradient2867-449-88-871-390-598-476-591-434-148-57-177-641-289-620-227-114-444-680-744-4-1-5"
     y1="20"
     y2="0" />
  <path
     sodipodi:type="inkscape:offset"
     inkscape:radius="0.48595017"
     inkscape:original="M 9 4 C 7.3431458 4 6 5.5670034 6 7.5 C 5.9999998 9.4329968 7.3431456 11 9 11 L 12 11 L 12 20 L 13 20 L 13 5 L 16 5 L 16 19.931641 L 17 19.931641 L 17 5 L 17 4 L 9 4 z "
     style="opacity:1;fill:url(#radialGradient857);fill-opacity:1"
     id="path855"
     d="M 9,3.5136719 C 7.0367477,3.5136719 5.5136719,5.3418946 5.5136719,7.5 5.5136717,9.6581056 7.0367475,11.486328 9,11.486328 h 2.513672 V 20 A 0.48599877,0.48599877 0 0 0 12,20.486328 h 1 A 0.48599877,0.48599877 0 0 0 13.486328,20 V 5.4863281 h 2.027344 V 19.931641 A 0.48599877,0.48599877 0 0 0 16,20.417969 h 1 a 0.48599877,0.48599877 0 0 0 0.486328,-0.486328 V 5 4 A 0.48599877,0.48599877 0 0 0 17,3.5136719 Z" />
  <ellipse
     cx="12.47998"
     cy="20.890133"
     fill="url(#b)"
     opacity=".2"
     rx="10.995358"
     ry="2.109867"
     id="ellipse9" />
  <path
     d="m9 2.9746094v.0253906c-2.209139 0-4 2.0147186-4 4.5s1.790861 4.5 4 4.5h2v .08984 2.173828 6.667969l3 .05273v-14.984367h1v15h3v-18zm0 1.0253906h8v1 14.931641h-1v-14.931641h-3v15h-1v-9h-3c-1.6568542 0-3-1.5670034-3-3.5s1.3431458-3.5 3-3.5z"
     opacity=".66"
     id="path11"
     style="opacity:1;stroke:none;fill:#000000;fill-opacity:0.43137255" />
  <path
     d="m9 3.9999996h8v1 14.9316414h-1v-14.9316414h-3v15.0000004h-1v-9h-3c-1.6568544 0-3.0000002-1.5670036-3-3.5000004 0-1.9329966 1.3431458-3.5 3-3.5z"
     fill="url(#c)"
     opacity=".66"
     id="path13"
     style="opacity:1;fill-opacity:1;fill:url(#radialGradient853)" />
  <path
     style="opacity:0.1;fill-opacity:1;fill:#ffffff"
     d="M 9 4 C 7.3431458 4 6 5.5670034 6 7.5 C 6 7.6713469 6.022578 7.8352413 6.0429688 8 C 6.2526104 6.3060848 7.4900146 5 9 5 L 13 5 L 16 5 L 17 5 L 17 4 L 9 4 z "
     id="path861" />
</svg>

<svg xmlns="http://www.w3.org/2000/svg" xmlns:xlink="http://www.w3.org/1999/xlink" height="24" width="24"><defs><linearGradient id="a"><stop offset="0" stop-color="#737373"/><stop offset=".262" stop-color="#636363"/><stop offset=".705" stop-color="#4b4b4b"/><stop offset="1" stop-color="#3f3f3f"/></linearGradient><radialGradient xlink:href="#a" id="e" cx="15" cy="3.75" fx="15" fy="3.75" r="5.5" gradientTransform="matrix(-3.2699 .13625 -.18182 -4.36364 64.73 14.32)" gradientUnits="userSpaceOnUse"/><radialGradient xlink:href="#a" id="c" gradientUnits="userSpaceOnUse" gradientTransform="matrix(-3.2699 .13625 -.18182 -4.36364 64.73 14.32)" cx="15" cy="3.75" fx="15" fy="3.75" r="5.5"/></defs><linearGradient id="b"><stop offset="0"/><stop offset="1" stop-opacity="0"/></linearGradient><radialGradient id="d" cx="22.571" cy="30.857" gradientTransform="matrix(.70612 0 0 .1355 -3.458 16.71)" gradientUnits="userSpaceOnUse" r="15.571" xlink:href="#b"/><path d="M9 3.514c-1.963 0-3.486 1.828-3.486 3.986 0 2.158 1.523 3.986 3.486 3.986h2.514V20a.486.486 0 0 0 .486.486h1a.486.486 0 0 0 .486-.486V5.486h2.028v14.446a.486.486 0 0 0 .486.486h1a.486.486 0 0 0 .486-.486V4A.486.486 0 0 0 17 3.514z" fill="url(#c)"/><ellipse cx="12.48" cy="20.89" fill="url(#d)" opacity=".2" rx="10.995" ry="2.11"/><path d="M9 2.975V3C6.79 3 5 5.015 5 7.5S6.79 12 9 12h2v8.932l3 .052V6h1v15h3V3zM9 4h8v15.932h-1V5h-3v15h-1v-9H9c-1.657 0-3-1.567-3-3.5S7.343 4 9 4z" fill-opacity=".431"/><path d="M9 4h8v15.932h-1V5h-3v15h-1v-9H9c-1.657 0-3-1.567-3-3.5S7.343 4 9 4z" fill="url(#e)"/><path d="M9 4C7.343 4 6 5.567 6 7.5c0 .17.023.335.043.5C6.253 6.306 7.49 5 9 5h8V4H9z" opacity=".1" fill="#fff"/></svg>
